icons/svgs/building-outline.svg

<svg width="24" height="24" viewBox="0 0 24 24" fill="none" xmlns="http://www.w3.org/2000/svg">
<path d="M7.5 3.875C7.14844 3.875 6.875 4.1875 6.875 4.5V19.5C6.875 19.8516 7.14844 20.125 7.5 20.125H10.625V17.625C10.625 16.6094 11.4453 15.75 12.5 15.75C13.5156 15.75 14.375 16.6094 14.375 17.625V20.125H17.5C17.8125 20.125 18.125 19.8516 18.125 19.5V4.5C18.125 4.1875 17.8125 3.875 17.5 3.875H7.5ZM5 4.5C5 3.13281 6.09375 2 7.5 2H17.5C18.8672 2 20 3.13281 20 4.5V19.5C20 20.9062 18.8672 22 17.5 22H7.5C6.09375 22 5 20.9062 5 19.5V4.5ZM8.4375 6.0625C8.4375 5.75 8.71094 5.4375 9.0625 5.4375H10.9375C11.25 5.4375 11.5625 5.75 11.5625 6.0625V7.9375C11.5625 8.28906 11.25 8.5625 10.9375 8.5625H9.0625C8.71094 8.5625 8.4375 8.28906 8.4375 7.9375V6.0625ZM14.0625 5.4375H15.9375C16.25 5.4375 16.5625 5.75 16.5625 6.0625V7.9375C16.5625 8.28906 16.25 8.5625 15.9375 8.5625H14.0625C13.7109 8.5625 13.4375 8.28906 13.4375 7.9375V6.0625C13.4375 5.75 13.7109 5.4375 14.0625 5.4375ZM8.4375 11.0625C8.4375 10.75 8.71094 10.4375 9.0625 10.4375H10.9375C11.25 10.4375 11.5625 10.75 11.5625 11.0625V12.9375C11.5625 13.2891 11.25 13.5625 10.9375 13.5625H9.0625C8.71094 13.5625 8.4375 13.2891 8.4375 12.9375V11.0625ZM14.0625 10.4375H15.9375C16.25 10.4375 16.5625 10.75 16.5625 11.0625V12.9375C16.5625 13.2891 16.25 13.5625 15.9375 13.5625H14.0625C13.7109 13.5625 13.4375 13.2891 13.4375 12.9375V11.0625C13.4375 10.75 13.7109 10.4375 14.0625 10.4375Z" fill="black"/>
</svg>

<svg xmlns="http://www.w3.org/2000/svg" width="24" height="24" fill="currentColor" class="icon-building-outline" viewBox="0 0 24 24">
  <mask id="a" width="15" height="20" x="5" y="2" maskUnits="userSpaceOnUse" style="mask-type:alpha">
    <path d="M7.5 3.875a.64.64 0 0 0-.625.625v15c0 .352.273.625.625.625h3.125v-2.5c0-1.016.82-1.875 1.875-1.875 1.016 0 1.875.86 1.875 1.875v2.5H17.5a.64.64 0 0 0 .625-.625v-15c0-.312-.312-.625-.625-.625zM5 4.5C5 3.133 6.094 2 7.5 2h10C18.867 2 20 3.133 20 4.5v15c0 1.406-1.133 2.5-2.5 2.5h-10A2.47 2.47 0 0 1 5 19.5zm3.438 1.563c0-.313.273-.625.624-.625h1.876c.312 0 .624.312.624.625v1.875a.64.64 0 0 1-.624.625H9.062a.617.617 0 0 1-.624-.626zm5.624-.625h1.876c.312 0 .624.312.624.625v1.875a.64.64 0 0 1-.625.625h-1.874a.617.617 0 0 1-.626-.626V6.063c0-.312.274-.625.626-.625m-5.624 5.625c0-.313.273-.626.624-.626h1.876c.312 0 .624.313.624.626v1.874a.64.64 0 0 1-.624.626H9.062a.617.617 0 0 1-.624-.626zm5.624-.626h1.876c.312 0 .624.313.624.626v1.874a.64.64 0 0 1-.625.626h-1.874a.617.617 0 0 1-.626-.626v-1.874c0-.313.274-.626.626-.626"/>
  </mask>
  <g mask="url(#a)">
    <path d="M0 0h24v24H0z"/>
  </g>
</svg>
